Origami/64x64/apps/radeon-profile.svg

<svg width="64" height="64" version="1" xmlns="http://www.w3.org/2000/svg">
 <rect transform="matrix(0,-1,-1,0,0,0)" x="-60" y="-60" width="56" height="56" rx="3" ry="3" style="fill:#c2352a"/>
 <path d="m14.1876 15.1254 9.8124 9.8746h16v15.9376l10 9.9376v-35.75zm9.8124 12.1866-10 9.75v13.938h14.75l9.874-10h-14.624z" style="opacity:.2"/>
 <path d="m7 4c-1.662 0-3 1.338-3 3v1c0-1.662 1.338-3 3-3h50c1.662 0 3 1.338 3 3v-1c0-1.662-1.338-3-3-3h-50z" style="fill:#ffffff;opacity:.1"/>
 <path d="m14.1876 14.1254 9.8124 9.8746h16v15.9376l10 9.9376v-35.75zm9.8124 12.1866-10 9.75v13.938h14.75l9.874-10h-14.624z" style="fill:#ffffff"/>
 <path d="m4 57v1c0 1.662 1.338 3 3 3h50c1.662 0 3-1.338 3-3v-1c0 1.662-1.338 3-3 3h-50c-1.662 0-3-1.338-3-3z" style="opacity:.2"/>
 <circle cx="48" cy="46" r="16" style="fill-rule:evenodd;fill:#8561c5"/>
 <path d="m46 38-0.1764 2.1072a6.2858 6.2858 0 0 0 -1.83704 1.06252l-1.91518-0.9018-2 3.4642 1.73882 1.2076a6.2858 6.2858 0 0 0 -0.096 1.06026 6.2858 6.2858 0 0 0 0.0914 1.06474l-1.73438 1.20312 2 3.4642 1.91072-0.89956a6.2858 6.2858 0 0 0 1.8415 1.0558l0.1764 2.1116h4l0.1764-2.1072a6.2858 6.2858 0 0 0 1.83708 -1.06252l1.91516 0.9018 2-3.4642-1.73884-1.2076a6.2858 6.2858 0 0 0 0.096 -1.06026 6.2858 6.2858 0 0 0 -0.0914 -1.06474l1.73438-1.20312-2-3.4642-1.91072 0.89956a6.2858 6.2858 0 0 0 -1.842 -1.056l-0.176-2.112h-4zm2 5.7144a2.2858 2.2858 0 0 1 2.286 2.286 2.2858 2.2858 0 0 1 -2.286 2.286 2.2858 2.2858 0 0 1 -2.286 -2.286 2.2858 2.2858 0 0 1 2.286 -2.286z" style="fill:#ffffff"/>
 <path d="M 32.025391,46.501953 A 16,16 0 0 0 32,47 16,16 0 0 0 48,63 16,16 0 0 0 64,47 16,16 0 0 0 63.982422,46.507812 16,16 0 0 1 48,62 16,16 0 0 1 32.025391,46.501953 Z" style="fill-rule:evenodd;opacity:.2"/>
</svg>

<svg xmlns="http://www.w3.org/2000/svg" width="64" height="64" version="1">
 <rect style="fill:#c2352a" width="56" height="56" x="-60" y="-60" rx="3" ry="3" transform="matrix(0,-1,-1,0,0,0)"/>
 <path style="opacity:0.2" d="M 14.1876,15.1254 24,25 l 16,0 0,15.9376 10,9.9376 0,-35.75 z M 24,27.312 14,37.062 14,51 28.75,51 38.624,41 24,41 Z"/>
 <path style="opacity:0.1;fill:#ffffff" d="M 7 4 C 5.338 4 4 5.338 4 7 L 4 8 C 4 6.338 5.338 5 7 5 L 57 5 C 58.662 5 60 6.338 60 8 L 60 7 C 60 5.338 58.662 4 57 4 L 7 4 z"/>
 <path style="fill:#ffffff" d="M 14.1876,14.1254 24,24 l 16,0 0,15.9376 10,9.9376 0,-35.75 z M 24,26.312 14,36.062 14,50 28.75,50 38.624,40 24,40 Z"/>
 <path style="opacity:0.2" d="m 4,57 0,1 c 0,1.662 1.338,3 3,3 l 50,0 c 1.662,0 3,-1.338 3,-3 l 0,-1 c 0,1.662 -1.338,3 -3,3 L 7,60 C 5.338,60 4,58.662 4,57 Z"/>
 <circle style="fill:#8561c5;fill-rule:evenodd" cx="48" cy="46" r="16"/>
 <path style="fill:#ffffff" d="m 46,38 -0.1764,2.1072 a 6.2858,6.2858 0 0 0 -1.83704,1.06252 l -1.91518,-0.9018 -2,3.4642 1.73882,1.2076 a 6.2858,6.2858 0 0 0 -0.096,1.06026 6.2858,6.2858 0 0 0 0.0914,1.06474 l -1.73438,1.20312 2,3.4642 1.91072,-0.89956 a 6.2858,6.2858 0 0 0 1.8415,1.0558 l 0.1764,2.1116 4,0 0.1764,-2.1072 a 6.2858,6.2858 0 0 0 1.83708,-1.06252 l 1.91516,0.9018 2,-3.4642 -1.73884,-1.2076 a 6.2858,6.2858 0 0 0 0.096,-1.06026 6.2858,6.2858 0 0 0 -0.0914,-1.06474 l 1.73438,-1.20312 -2,-3.4642 -1.91072,0.89956 a 6.2858,6.2858 0 0 0 -1.842,-1.056 l -0.176,-2.112 -4,0 z m 2,5.7144 a 2.2858,2.2858 0 0 1 2.286,2.286 A 2.2858,2.2858 0 0 1 48,48.2864 2.2858,2.2858 0 0 1 45.714,46.0004 2.2858,2.2858 0 0 1 48,43.7144 Z"/>
 <path style="opacity:0.2;fill-rule:evenodd" d="M 32.025391,46.501953 A 16,16 0 0 0 32,47 16,16 0 0 0 48,63 16,16 0 0 0 64,47 16,16 0 0 0 63.982422,46.507812 16,16 0 0 1 48,62 16,16 0 0 1 32.025391,46.501953 Z"/>
</svg>
